fs/folder_arrow_right_28_regular.svg

<svg viewBox="0 0 28 28" fill="none" xmlns="http://www.w3.org/2000/svg" height="1em" width="1em">
  <path d="M21.5 15C24.5376 15 27 17.4624 27 20.5C27 23.5376 24.5376 26 21.5 26C18.4624 26 16 23.5376 16 20.5C16 17.4624 18.4624 15 21.5 15ZM10.2069 4C10.6675 4 11.1153 4.14129 11.4909 4.40235L11.6473 4.5215L14.022 6.5H23.75C24.8867 6.5 25.8266 7.34297 25.9785 8.43788L25.9948 8.59595L26 8.75L26.0008 15.8104C25.5566 15.384 25.052 15.02 24.5011 14.7328L24.5 8.75C24.5 8.3703 24.2178 8.05651 23.8518 8.00685L23.75 8H14.021L11.6473 9.9785C11.2935 10.2733 10.8591 10.4515 10.4034 10.4914L10.2069 10.5L3.5 10.499V21.75C3.5 22.1297 3.78215 22.4435 4.14823 22.4932L4.25 22.5L15.3136 22.5004C15.4861 23.0342 15.7258 23.5378 16.0226 24.0012L4.25 24C3.05914 24 2.08436 23.0748 2.00519 21.904L2 21.75V6.25C2 5.05914 2.92516 4.08436 4.09595 4.00519L4.25 4H10.2069ZM21.7919 17.5452L21.7157 17.5886L21.6464 17.6464L21.5886 17.7157C21.4705 17.8862 21.4705 18.1138 21.5886 18.2843L21.6464 18.3536L23.2917 19.999L18.4937 20L18.4038 20.0081C18.1997 20.0451 18.0388 20.206 18.0018 20.4101L17.9937 20.5L18.0018 20.5899C18.0388 20.794 18.1997 20.9549 18.4038 20.9919L18.4937 21L23.2937 20.999L21.6464 22.6464L21.5886 22.7157C21.4536 22.9106 21.4729 23.18 21.6464 23.3536C21.82 23.5271 22.0894 23.5464 22.2843 23.4114L22.3536 23.3536L24.889 20.813L24.9202 20.7711L24.9622 20.691L24.9882 20.6083L24.998 20.5444L24.9957 20.4341L24.9883 20.392L24.9624 20.3094L24.9205 20.2293L24.8832 20.1788L22.3536 17.6464L22.2843 17.5886C22.1382 17.4873 21.9501 17.4729 21.7919 17.5452ZM10.2069 5.5H4.25C3.8703 5.5 3.55651 5.78215 3.50685 6.14823L3.5 6.25V8.999L10.2069 9C10.3473 9 10.4841 8.96063 10.6022 8.88738L10.6871 8.82617L12.578 7.249L10.6871 5.67383C10.5792 5.58398 10.4489 5.52664 10.3113 5.5073L10.2069 5.5Z" fill="#212121"/>
</svg>

<svg viewBox="0 0 28 28" fill="none" xmlns="http://www.w3.org/2000/svg" height="1em" width="1em">
  <path d="M21.5 15a5.5 5.5 0 1 1 0 11 5.5 5.5 0 0 1 0-11ZM10.207 4c.46 0 .908.141 1.284.402l.156.12L14.022 6.5h9.728a2.25 2.25 0 0 1 2.229 1.938l.016.158.005.154v7.06a6.517 6.517 0 0 0-1.499-1.077L24.5 8.75a.75.75 0 0 0-.648-.743L23.75 8h-9.729l-2.374 1.979a2.25 2.25 0 0 1-1.244.512l-.196.009-6.707-.001V21.75c0 .38.282.694.648.743l.102.007h11.064c.172.534.412 1.038.709 1.501L4.25 24a2.25 2.25 0 0 1-2.245-2.096L2 21.75V6.25a2.25 2.25 0 0 1 2.096-2.245L4.25 4h5.957Zm11.585 13.545-.076.044-.07.057-.057.07a.5.5 0 0 0 0 .568l.057.07 1.646 1.645-4.798.001-.09.008a.5.5 0 0 0-.402.402l-.008.09.008.09a.5.5 0 0 0 .402.402l.09.008 4.8-.001-1.648 1.647-.057.07a.5.5 0 0 0 .695.695l.07-.057 2.535-2.541.031-.042.042-.08.026-.083.01-.064-.002-.11-.008-.042-.026-.083-.041-.08-.038-.05-2.53-2.533-.069-.057a.5.5 0 0 0-.492-.044ZM10.207 5.5H4.25a.75.75 0 0 0-.743.648L3.5 6.25v2.749L10.207 9a.75.75 0 0 0 .395-.113l.085-.06 1.891-1.578-1.89-1.575a.75.75 0 0 0-.377-.167l-.104-.007Z" fill="#212121"/>
</svg>
